Nb_Gen-main_extracted/Nb_Gen-main/Gemini_Texture_Revealer.xmp
<x:xmpmeta xmlns:x="adobe:ns:meta/" x:xmptk="Adobe XMP Core 5.6-c140 79.160451, 2017/05/06-01:08:21        ">
 <rdf:RDF xmlns:rdf="http://www.w3.org/1999/02/22-rdf-syntax-ns#">
  <rdf:Description rdf:about=""
    xmlns:crs="http://ns.adobe.com/camera-raw-settings/1.0/"
   crs:Version="11.0"
   crs:ProcessVersion="11.0"
   crs:Texture="+60"
   crs:Clarity2012="+35"
   crs:Dehaze="+20"
   crs:Sharpness="60"
   crs:SharpnessRadius="1.4"
   crs:SharpnessDetail="75"
   crs:SharpnessMasking="10"
   crs:Shadows2012="+25"
   crs:Whites2012="+20"
   crs:Blacks2012="-15"
   crs:LuminanceSmoothing="0"
   crs:ColorNoiseReduction="0"
   crs:Depth="0" 
   crs:HasSettings="True">
   <crs:Name>
    <rdf:Alt>
     <rdf:li xml:lang="x-default">Gemini Texture Revealer (DNG ULTRA + FIXED CLARITY)</rdf:li>
    </rdf:Alt>
   </crs:Name>
  </rdf:Description>
 </rdf:RDF>
</x:xmpmeta>
